packages/blockchain-info-components/src/Images/img/silver-approved.svg

<svg fill="none" height="63" viewBox="0 0 61 63" width="61" xmlns="http://www.w3.org/2000/svg" xmlns:xlink="http://www.w3.org/1999/xlink"><clipPath id="a"><path d="m0 15.1335h47.8664v47.8664h-47.8664z"/></clipPath><g clip-path="url(#a)"><path d="m23.9332 63c13.218 0 23.9332-10.7153 23.9332-23.9332 0-13.218-10.7152-23.9333-23.9332-23.9333-13.2179 0-23.9332 10.7153-23.9332 23.9333 0 13.2179 10.7153 23.9332 23.9332 23.9332z" fill="#dbe2f0"/></g><path d="m24.5284 50.9846c-1.728 0-3.4026-.2454-5.024-.736-1.6-.4907-2.8693-1.1414-3.808-1.952l1.44-3.232c.9174.7253 2.0374 1.3226 3.36 1.792 1.344.448 2.688.672 4.032.672 1.664 0 2.9014-.2667 3.712-.8.832-.5334 1.248-1.2374 1.248-2.112 0-.64-.2346-1.1627-.704-1.568-.448-.4267-1.024-.7574-1.728-.992-.704-.2347-1.664-.5014-2.88-.8-1.7066-.4054-3.0933-.8107-4.16-1.216-1.0453-.4054-1.952-1.0347-2.72-1.8881-.7466-.8746-1.12-2.0479-1.12-3.52 0-1.2373.3307-2.3573.992-3.3599.6827-1.0241 1.696-1.8347 3.04-2.4321 1.3654-.5973 3.0294-.896 4.992-.896 1.3654 0 2.7094.1707 4.032.5121 1.3227.3413 2.464.832 3.424 1.472l-1.312 3.2319c-.9813-.5759-2.0053-1.0133-3.072-1.3119-1.0666-.2987-2.1013-.4481-3.104-.4481-1.6426 0-2.8693.2774-3.68.832-.7893.5547-1.184 1.2907-1.184 2.208 0 .64.224 1.1627.672 1.568.4694.4054 1.056.7254 1.76.96.704.2347 1.664.5014 2.88.8 1.664.3841 3.0294.7894 4.096 1.2161 1.0667.4053 1.9734 1.0346 2.72 1.888.768.8533 1.152 2.0053 1.152 3.456 0 1.2373-.3413 2.3573-1.024 3.36-.6613 1.0026-1.6746 1.8026-3.04 2.4-1.3653.5973-3.0293.896-4.992.896z" fill="#121d33"/><circle cx="46" cy="15" fill="#fff" r="13" stroke="#1a1835" stroke-width="4"/><path clip-rule="evenodd" d="m46 27c6.6274 0 12-5.3726 12-12 0-6.62742-5.3726-12-12-12s-12 5.37258-12 12c0 6.6274 5.3726 12 12 12zm-7.3431-11.3431 2.1213-2.1214 3 3 7.8787-7.87864 2.1213 2.12134-10 10z" fill="#59cd93" fill-rule="evenodd"/></svg>

<svg width="61" height="63" viewBox="0 0 61 63" fill="none" xmlns="http://www.w3.org/2000/svg">
<g clip-path="url(#clip0)">
<path d="M23.9332 63C37.1512 63 47.8664 52.2847 47.8664 39.0668C47.8664 25.8488 37.1512 15.1335 23.9332 15.1335C10.7153 15.1335 0 25.8488 0 39.0668C0 52.2847 10.7153 63 23.9332 63Z" fill="#DBE2F0"/>
</g>
<path d="M24.5284 50.9846C22.8004 50.9846 21.1258 50.7392 19.5044 50.2486C17.9044 49.7579 16.6351 49.1072 15.6964 48.2966L17.1364 45.0646C18.0538 45.7899 19.1738 46.3872 20.4964 46.8566C21.8404 47.3046 23.1844 47.5286 24.5284 47.5286C26.1924 47.5286 27.4298 47.2619 28.2404 46.7286C29.0724 46.1952 29.4884 45.4912 29.4884 44.6166C29.4884 43.9766 29.2538 43.4539 28.7844 43.0486C28.3364 42.6219 27.7604 42.2912 27.0564 42.0566C26.3524 41.8219 25.3924 41.5552 24.1764 41.2566C22.4698 40.8512 21.0831 40.4459 20.0164 40.0406C18.9711 39.6352 18.0644 39.0059 17.2964 38.1525C16.5498 37.2779 16.1764 36.1046 16.1764 34.6325C16.1764 33.3952 16.5071 32.2752 17.1684 31.2726C17.8511 30.2485 18.8644 29.4379 20.2084 28.8405C21.5738 28.2432 23.2378 27.9445 25.2004 27.9445C26.5658 27.9445 27.9098 28.1152 29.2324 28.4566C30.5551 28.7979 31.6964 29.2886 32.6564 29.9286L31.3444 33.1605C30.3631 32.5846 29.3391 32.1472 28.2724 31.8486C27.2058 31.5499 26.1711 31.4005 25.1684 31.4005C23.5258 31.4005 22.2991 31.6779 21.4884 32.2325C20.6991 32.7872 20.3044 33.5232 20.3044 34.4405C20.3044 35.0805 20.5284 35.6032 20.9764 36.0085C21.4458 36.4139 22.0324 36.7339 22.7364 36.9685C23.4404 37.2032 24.4004 37.4699 25.6164 37.7685C27.2804 38.1526 28.6458 38.5579 29.7124 38.9846C30.7791 39.3899 31.6858 40.0192 32.4324 40.8726C33.2004 41.7259 33.5844 42.8779 33.5844 44.3286C33.5844 45.5659 33.2431 46.6859 32.5604 47.6886C31.8991 48.6912 30.8858 49.4912 29.5204 50.0886C28.1551 50.6859 26.4911 50.9846 24.5284 50.9846Z" fill="#121D33"/>
<circle cx="46" cy="15" r="13" fill="white" stroke="#1A1835" stroke-width="4"/>
<path fill-rule="evenodd" clip-rule="evenodd" d="M46 27C52.6274 27 58 21.6274 58 15C58 8.37258 52.6274 3 46 3C39.3726 3 34 8.37258 34 15C34 21.6274 39.3726 27 46 27ZM38.6569 15.6569L40.7782 13.5355L43.7782 16.5355L51.6569 8.65686L53.7782 10.7782L43.7782 20.7782L38.6569 15.6569Z" fill="#59CD93"/>
<defs>
<clipPath id="clip0">
<rect width="47.8664" height="47.8664" fill="white" transform="translate(0 15.1335)"/>
</clipPath>
</defs>
</svg>
